!!!COM: Haydn, Franz Joseph
!!!CDT: 1732/03/31/-1809/05/31/
!!!CNT: Austrian
!!!OTL: Sonata No. 29 in E-flat major
!!!SCT: Hob. XVI:45
!!!OMV: Mvmt. 3
!!!OMD: Finale: Allegro di molto
!!!ODT: 1765-1767///
!!!SMS: Universal Edition 2, Haydn Piano Sonatas, Vol. 2, No. 30
!!!ONB: Stich und Druck von Jos. Eberle & Co. Wien VII. Seidengasse 3-9
**kern	**kern	**dynam
*staff2	*staff1	*staff1
*>[A,A,B,B]	*>[A,A,B,B]	*>[A,A,B,B]
*>norep[A,B]	*>norep[A,B]	*>norep[A,B]
*>A	*>A	*>A
*clefF4	*clefG2	*clefG2
*k[b-e-a-]	*k[b-e-a-]	*k[b-e-a-]
*E-:	*E-:	*E-:
*M3/4	*M3/4	*M3/4
*MM144	*MM144	*MM144
=1-	=1-	=1-
2E-\ 2G\	8r	.
.	8b-''\L	p
.	(8b-\	.
.	(8ee-\)	.
*clefG2	*	*
(4g/	8ee-\	.
.	8dd\J)	.
=2	=2	=2
8a-/)	8r	.
8r	8cc\	.
8g/	8r	.
8r	8b-\	.
8f/	8r	.
8r	8a-/	.
=3	=3	=3
2e-/	8r	.
.	8g''\L	.
.	8b-\	.
.	8ee-\	.
(4g/	(8ee-\	.
.	8dd\J)	.
=4	=4	=4
8a-/)	16r	.
.	16cc\LL	.
8r	16bn\	.
.	&(16cc\JJ&)	.
8g/	16r	.
.	16b-/LL	.
8r	16an/	.
.	16b-/JJ	.
8f/	16r	.
.	16a-/LL	.
8r	16g/	.
.	16a-/JJ	.
=5	=5	=5
4e-/	16r	.
.	(16g\LL	f
.	16a-\	.
.	16b-\JJ	.
4r	16cc\LL	.
.	16dd\	.
.	16ee-\	.
.	16ff\JJ	.
4r	16gg\LL	.
.	16ee-\	.
.	16dd\	.
.	16cc\JJ	.
*clefF4	*	*
=6	=6	=6
8r	2b-\	f
16E-\LL	.	.
16F\JJ	.	.
&(8G''\L&)	.	.
8E-''\	.	.
8F''\	4a-/	.
8BB-''\J	.	.
=7	=7	=7
!	!gq/LL	!.
!	!a-q/JJ	!.
4E-\	16g''/LL)	.
.	(16e-/	mf
.	16d/	.
.	16e-/JJ	.
4r	16f/LL	.
.	16e-/	.
.	16d/	.
.	16e-/JJ	.
4GG''/	16g/LL	.
.	16f/	.
.	16e-/	.
.	16d/JJ	.
=8	=8	=8
4AA-''/	16c''/LL)	.
.	(16a-/	.
.	16cc/	.
.	16b-/JJ	.
4r	16a-/LL	.
.	16g/	.
.	16f/	.
.	16e-/JJ	.
4BB-''/	16d/LL	.
.	16c/	.
.	16B-/	.
.	16A-/JJ	.
=9	=9	=9
4E-''\	16G''/LL)	.
.	(16e-/	.
.	16d/	.
.	16e-/JJ	.
4r	16f/LL	.
.	16e-/	.
.	16d/	.
.	16e-/JJ	.
4GG''/	16g/LL	.
.	16f/	.
.	16e-/	.
.	16d/JJ	.
=10	=10	=10
4AA-''/	16c''/LL)	.
.	(16a-/	.
.	16cc/	.
.	16b-/JJ	.
4r	16a-/LL	.
.	16g/	.
.	16f/	.
.	16e-/JJ	.
4BB-''/	16d/LL	.
.	16c/	.
.	16B-/	.
.	16A-/JJ	.
=11	=11	=11
16r	8G/)	.
(16E-\LL	.	.
16F\	8r	.
16G\JJ	.	.
16A-\LL	4r	.
16B-\	.	.
16c\	.	.
16d\JJ	.	.
16e-\LL	4r	.
16f\	.	.
16g\	.	.
16f\JJ	.	.
=12	=12	=12
4e-''\)	8r	.
.	8g\L	p
4r	&(8gg\&)	.
.	8gg''\	.
4e-''\	8bn\	.
.	&(8cc\J&)	.
=13	=13	=13
4d''\	8r	.
.	(8f\L	.
4r	8ff\)	.
.	8ff''\	.
4d''\	(8an\	.
.	8b-\J)	.
=14	=14	=14
4e-''\	16r	.
.	16g\LL	.
.	16dd\	.
.	16bn\JJ	.
*clefG2	*	*
8cc^\	16r	.
.	16g\LL	.
8r	16ee-\	.
.	16cc\JJ	.
*clefF4	*	*
4e-''\	16r	.
.	16g\LL	.
.	16gg\	.
.	16ee-\JJ	.
=15	=15	=15
4d''\	16r	.
.	16f\LL	.
.	16cc\	.
.	16an\JJ	.
*clefG2	*	*
8b-\	16r	.
.	16f\LL	.
8r	16dd\	.
.	16b-\JJ	.
*clefF4	*	*
4d''\	16r	.
.	16f\LL	.
.	16ff\	.
.	16dd\JJ	.
=16	=16	=16
4An''\	16r	.
.	16f\LL	.
.	16cc\	.
.	16ee-\JJ	.
*clefG2	*	*
4an''/	16r	.
.	16f\LL	.
.	16cc\	.
.	16ee-\JJ	<
4b-''\	16r	.
.	16f\LL	.
.	16b-\	.
.	16dd\JJ	.
=17	=17	=17
4An''/	16r	.
.	16f\LL	.
.	16cc\	.
.	16ee-\JJ	.
4an''/	16r	.
.	16f\LL	.
.	16cc\	.
.	16ee-\JJ	.
4b-''\	16r	.
.	16f\LL	.
.	16b-\	.
.	16dd\JJ	.
=18	=18	=18
4An''/	16r	.
.	16f\LL	.
.	16cc\	.
.	16ee-\JJ	.
4an''/	16r	.
.	16f\LL	.
.	16cc\	.
.	16ee-\JJ	.
4b-''/	16r	.
.	16f\LL	.
.	16b-\	.
.	16dd\JJ	.
*clefF4	*	*
=19	=19	=19
*^	*	*
(4B-/	2F\	(4dd\	>
4An/)	.	4cc\)	.
4r	4r	4r	.
*v	*v	*	*
=20	=20	=20
4BBB-/ 4BB-/	16r	.
.	(16B-'/LL	f
.	16B-'/	.
.	16B-'/JJ)	.
4DD/ 4D/	16r	.
.	(16d'/LL	.
.	16d'/	.
.	16d'/JJ)	.
4FF/ 4F/	16r	.
.	(16f'/LL	.
.	16f'/	.
.	16f'/JJ)	.
=21	=21	=21
4BB-\ 4B-\	16r	.
.	(16b-/LL	.
.	16an/	.
.	16b-/JJ	.
4r	16dd/LL	.
.	16b-/	.
.	16a/	.
.	16g/JJ	.
4r	16f/LL	.
.	16e-/	.
.	16d/	.
.	16c/JJ	.
=22	=22	=22
4BBB-/ 4BB-/	16B-''/LL)	.
.	(16B-'/	.
.	16B-'/	.
.	16B-'/JJ)	.
4DD/ 4D/	16r	.
.	(16d'/LL	.
.	16d'/	.
.	16d'/JJ)	.
4FF/ 4F/	16r	.
.	(16f'/LL	.
.	16f'/	.
.	16f'/JJ)	.
=23	=23	=23
4BB-\ 4B-\	16r	.
.	16b-/LL	.
.	(16an/	.
.	16b-/JJ	.
4r	16dd/LL	.
.	16cc/	.
.	16b-/	.
.	16a/JJ	.
4r	16g/LL	.
.	16f/	.
.	16e-/	.
.	16d/JJ	.
=24	=24	=24
2E-\ 2G\	16c''/LL)	.
.	(16ee-/	.
.	16dd/	>
.	16ee-/JJ	.
.	16gg\LL	.
.	16ff\	.
.	16ee-\	.
.	16dd\JJ	.
4r	16cc\LL	.
.	16b-\	.
.	16an\	.
.	16g\JJ	.
=25	=25	=25
2F\ 2c\ 2e-\	16f''/LL)	.
.	(16an'/	p
.	16a'/	.
.	16a'/JJ)	.
.	(16cc/LL	.
.	16a/)	.
.	(16cc/	.
.	16a/JJ)	.
4F\ 4c\ 4e-\	16r	.
.	(16a'/LL	.
.	16a'/	.
.	16a'/JJ)	.
=26	=26	=26
2F\ 2B-\ 2d\	16r	.
.	(16b-'\LL	.
.	16b-'\	.
.	16b-'\JJ)	.
.	(16dd\LL	.
.	16b-\)	.
.	(16dd\	.
.	16b-\JJ)	.
4F\ 4B-\ 4d\	16r	.
.	(16b-'\LL	.
.	16b-'\	.
.	16b-'\JJ)	.
=27	=27	=27
2F\ 2An\ 2c\	16r	.
.	(16cc'\LL	.
.	16cc'\	.
.	16cc'\JJ)	.
.	(16ee-\LL	.
.	16cc\)	.
.	(16ee-\	.
.	16cc\JJ)	.
4F\ 4A\ 4c\	16r	<
.	(16cc'\LL	.
.	16cc'\	.
.	16cc'\JJ)	.
=28	=28	=28
2.r	16b-\	.
.	16dd/	.
.	16an\	.
.	16cc/	.
.	16g\	.
.	16b-/	.
.	16f\	.
.	16an/	.
.	16e-\	.
.	16g/	.
.	16d\	.
.	16f/	.
=29	=29	=29
2.r	16b-\	.
.	16dd/	.
.	16an\	.
.	16cc/	.
.	16g\	.
.	16b-/	.
.	16f\	.
.	16an/	.
.	16e-\	.
.	16g/	.
.	16d\	.
.	16f/	.
=30	=30	=30
4e-\	16r	.
.	(16g/LL	f
.	16an/	.
.	16bn/JJ	.
4r	16cc\LL	.
.	16dd\	.
.	16ee-\	.
.	16ff\JJ	.
16r	8gg\)	.
(16e-\LL	.	.
16E-\	8r	.
16e-\JJ	.	.
=31	=31	=31
4D\)	16r	.
.	16f/LL	.
.	16g/	.
.	16an/JJ	.
4r	16b-\LL	.
.	16cc\	.
.	16dd\	.
.	16ee-\JJ	.
16r	&(8ff\&)	.
(16d\LL	.	.
16D\	8r	.
16d\JJ	.	.
=32	=32	=32
4E-\)	16r	.
.	16g/LL	.
.	16an/	.
.	16bn/JJ	.
4r	16cc\LL	.
.	16dd\	.
.	16ee-\	.
.	16ff\JJ	.
16r	&(8gg\&)	.
(16e-\LL	.	.
16E-\	8r	.
16e-\JJ	.	.
=33	=33	=33
4D\)	16r	.
.	16f/LL	.
.	16g/	.
.	16an/JJ	.
4r	16b-\LL	.
.	16cc\	.
.	16dd\	.
.	16ee-\JJ	.
4r	16ff\LL	.
.	16gg\	.
.	16aan\	.
.	32bb-\L	.
.	32ccc\JJJ	.
=34	=34	=34
2.r	&(8ddd''\&)	.
.	8r	.
.	4r	.
.	4r	.
*clefG2	*	*
=35	=35	=35
4en/ 4b-/	(16cc\LL	p
.	16een\	.
.	16gg\	.
.	16ff\JJ	.
8r	16ee\LL	.
.	16dd\	.
8e''/ 8b-''/L	16cc\	.
.	16dd\JJ	.
8e''/ 8b-''/	16cc\LL	.
.	16dd\	.
8e''/ 8b-''/J	16cc\	.
.	16dd\JJ	.
=36	=36	=36
4f/ 4an/	16cc\LL	.
.	16een\	.
.	16ff\	.
.	16ee\JJ	.
4r	16dd\LL	.
.	16cc\	.
.	16b-\	.
.	16an\JJ	.
4r	16g/LL	.
.	16f/	.
.	16en/	.
.	16d/JJ	.
*clefF4	*	*
=37	=37	=37
4En\ 4B-\	(16c/LL)	.
.	16en/	mf
.	16g/	.
.	16f/JJ	.
8r	16e/LL	.
.	16d/	.
8E''\ 8B-''\L	16c/	.
.	16d/JJ	.
8E''\ 8B-''\	16c/LL	.
.	16d/	.
8E''\ 8B-''\J	16c/	.
.	16d/JJ	.
=38	=38	=38
4F\ 4An\	16c/LL	<
.	16f/	.
.	16en/	.
.	16d/JJ	.
4r	16c/LL	.
.	16B-/	.
.	16An/	.
.	16G/JJ	.
4r	16F/LL	.
.	16G/	.
.	16A/	.
.	16B-/JJ	.
=39	=39	=39
4FFF/ 4FF/	16c/LL)	f
.	16An/	.
.	16c/	.
.	16d/JJ	.
8r	16e-/LL	.
.	16c/	.
8F''\L	16cc/	.
.	16b-/JJ	.
8G''\	16an/LL	.
.	16g/	.
8An''\J	16f/	.
.	16e-/JJ	.
=40	=40	=40
4B-'\	(16d/LL	.
.	16f/	.
.	16e-/	.
.	16d/JJ	.
4c'\	16e-/LL	.
.	16f/	.
.	16g/	.
.	16an/JJ	.
4d'\	16b-\LL	.
.	16cc\	.
.	16dd\	.
.	16b-\JJ	.
=41	=41	=41
*^	*	*
(4e-/	4E-\	16an\LL	.
.	.	16g\	.
.	.	16ee-\	.
.	.	16cc\JJ	.
4d/	2F\	4b-\	.
4c/	.	4a/)	>
*v	*v	*	*
=42	=42	=42
!	!gq/LL	!.
!	!aq/JJ	!.
4B-'\)	16d/LL	mf
.	16f/	.
.	16e-/	.
.	16d/JJ	.
4c'\	16e-/LL	.
.	16f/	.
.	16g/	.
.	16an/JJ	.
4d'\	16b-\LL	.
.	16cc\	.
.	16dd\	.
.	&(16b-\JJ&)	.
*clefG2	*	*
=43	=43	=43
8e-''/L	(16an\LL	.
.	16g\	<
8c''/J	16ee-\	.
.	(16cc\JJ)	.
8f''/L	16b-\LL	.
.	16a\	.
8d''/J	16ff\	.
.	(16dd\JJ)	.
8g''/L	16cc\LL	.
.	16b-\	.
8e-''/J	16gg\	.
.	16ee-\JJ)	.
=44	=44	=44
4an/	(16dd\LL	f
.	16cc\	.
.	16ddd\	.
.	16ccc\JJ	.
8r	16bb-\LL	.
.	16aan\	.
*clefF4	*	*
8F''\L	16ccc\	.
.	16bb-\JJ	.
8G''\	16aa\LL	.
.	16gg\	.
8An''\J	16ff\	.
.	16ee-\JJ	.
=45	=45	=45
4B-'\	(16dd\LL)	.
.	16ff\	.
.	16ee-\	.
.	16dd\JJ	.
4c'\	16ee-\LL	.
.	16ff\	.
.	16gg\	.
.	16aan\JJ	.
4d'\	16bb-\LL	.
.	16ff\	.
.	16ee-\	.
.	16dd\JJ	.
=46	=46	=46
*^	*	*
4e-/	4E-\	16cc\LL	.
.	.	16gg\	.
.	.	16ee-\	.
.	.	16cc\JJ	.
4d/	2F\	4b-\	.
4c/	.	4an/	.
*v	*v	*	*
=47	=47	=47
!	!gq/LL	!.
!	!aq/JJ	!.
&(4B-\&)	8b-/)	>
.	(16d/ 16f/LL	p
.	16e-/ 16g/JJ	.
4r	8d''/) 8f''/L	.
.	8c''/ 8e-''/	.
4r	8B-/ 8d/	.
.	8An''/ 8c''/J	.
=48	=48	=48
*^	*	*
8r	2BB-\	8B-''/ 8d''/	.
16F/LL	.	16d/LL	.
16G/JJ	.	16e-/JJ	.
8F/L	.	8d/L	.
8E-/	.	8c/	p
8D/	4FF\	8B-/	.
8C/J	.	8An/J	.
=49	=49	=49	=49
4C/	2.BBB-\ 2.BB-\	4An/	.
2D/	.	2B-/	.
*v	*v	*	*
=50:|!|:	=50:|!|:	=50:|!|:
*>B	*>B	*>B
4BBB-/ 4BB-/	8r	.
.	8ff''\L	p
4r	(8ff\	.
.	8bb-\)	.
*clefG2	*	*
(4dd\	(8bb-\	.
.	8aan\J)	.
=51	=51	=51
8ee-\)	8r	.
8r	8gg\	.
8dd\	8r	.
8r	8ff\	.
8cc\	8r	.
8r	8ee-\	.
=52	=52	=52
4b-\	8r	.
.	8dd''\L	.
4r	8ff\	.
.	8bb-\	.
(4dd\	(8bb-\	.
.	8aan\J)	.
=53	=53	=53
8ee-\)	16r	.
.	16gg\LL	.
8r	16ff#\	.
.	&(16gg\JJ&)	.
8dd\	16r	.
.	16ffn\LL	.
8r	16een\	.
.	&(16ff\JJ&)	.
8cc\	16r	.
.	16ee-\LL	.
8r	16dd\	.
.	&(16ee-\JJ&)	.
=54	=54	=54
4b-\	16r	.
.	(16dd\LL	f
.	16ee-\	.
.	16ff\JJ	.
4r	16gg\LL	.
.	16aan\	.
.	16bb-\	.
.	16ccc\JJ	.
4r	16ddd\LL	.
.	16bb-\	.
.	16aa\	.
.	16gg\JJ	.
*clefF4	*	*
=55	=55	=55
8r	2ff\)	f
16B-\LL	.	.
16c\JJ	.	.
&(8d''\L&)	.	.
8B-''\	.	.
8c''\	(4ee-\	.
8F''\J	.	.
=56	=56	=56
!	!ddq/LL	!.
!	!ee-q/JJ	!.
4B-\	16dd''\LL)	mf
.	(16b-\	.
.	16an\	.
.	16b-\JJ	.
4r	16cc\LL	.
.	16b-\	.
.	16a\	.
.	16b-\JJ	.
4D''\	16dd\LL	.
.	16cc\	.
.	16b-\	.
.	16a\JJ	.
=57	=57	=57
4E-''\	16g''\LL)	.
.	(16ee-\	.
.	16gg\	.
.	16ff\JJ	.
4r	16ee-\LL	.
.	16dd\	.
.	16cc\	.
.	16b-\JJ	.
4F''\	16an/LL	.
.	16g/	.
.	16f/	.
.	16e-/JJ	.
=58	=58	=58
4BB-''/	16d''/LL	.
.	(16b-/)	.
.	16an/	.
.	16b-/JJ	.
4r	16cc/LL	.
.	16b-/	.
.	16a/	.
.	16b-/JJ	.
4D''\	16dd/LL	.
.	16cc/	.
.	16b-/	.
.	16a/JJ	.
=59	=59	=59
4E-''\	16g''\LL)	.
.	(16ee-\	.
.	16gg\	.
.	16ff\JJ	.
4r	16ee-\LL	.
.	16dd\	.
.	16cc\	.
.	16b-\JJ	.
4F''\	16an/LL	.
.	16g/	.
.	16f/	.
.	16e-/JJ	.
=60	=60	=60
16r	4d/)	.
(16BB-/LL	.	.
16C/	.	.
16D/JJ	.	.
16E-\LL	4r	.
16F\	.	.
16G\	.	.
16An\JJ	.	.
16B-\LL	4r	.
16c\	.	.
16d\	.	.
16c\JJ	.	.
=61	=61	=61
4B-\)	16r	.
.	16b-\LL	<
.	16cc\	.
.	16dd\JJ	.
4r	16ee-\LL	.
.	16ff\	.
.	16gg\	.
.	16aan\JJ	.
4r	16bb-\LL	.
.	16ccc\	.
.	16ddd\	.
.	16ccc\JJ	.
*clefG2	*	*
=62	=62	=62
8r	&([4bb-\&)	f
8b-''\ 8dd-''\L	.	.
8b-''\ 8dd-''\	8bb-\L]	.
8b-''\ 8dd-''\	8aa-''\	.
8b-''\ 8dd-''\	8gg''\	.
8b-''\ 8dd-''\J	8ff''\J	.
=63	=63	=63
8r	(4ff\	.
8cc''\L	.	.
8cc''\	8een\L)	.
8cc\	8bb-''\ 8ddd-''\	mf
8cc''\	8aa-''\ 8ccc''\	.
8cc''\J	8gg''\ 8bb-''\J	.
=64	=64	=64
8r	4gg\ (4bb-\	>
8cc''\L	.	.
8cc''\	8ff\ 8aa-\L)	.
8cc''\	8aa-''\ 8ccc''\	.
8cc''\	8gg''\ 8bb-''\	.
8cc''\J	8ff''\ 8aa-''\J	.
=65	=65	=65
8r	4ff\ (4aa-\	.
8c''/L	.	.
8c''/	8een\ 8gg\L)	.
8c''/	8b-\ 8dd-\	.
8c''/	8a-''\ 8cc''\	.
8c''/J	8g''\ 8b-''\J	.
=66	=66	=66
8r	(4g/ 4b-/	p
8c/L	.	.
8c/	8f/) 8a-/L	.
8c/	8a-''/ 8cc''/	.
8c/	8g''/ 8b-''/	.
8c/J	8f''/ 8a-''/J	.
=67	=67	=67
2c/	(4f/ 4a-/	.
.	4en/) 4g/	.
4r	4r	.
*clefF4	*	*
=68	=68	=68
[2.AA-\ [2.C\ [2.E-\ [2.A-\	(16aa-\LL	f
.	16ccc\	.
.	16bb-\	.
.	16aa-\JJ	.
.	16gg\LL	.
.	16ff\	.
.	16ee-\	.
.	16dd-\JJ	.
.	16cc\LL	.
.	16b-\	.
.	16a-\	.
.	16g\JJ	.
=69	=69	=69
2AA-\] 2C\] 2E-\] 2A-\]	16a-\LL	>
.	16cc\	.
.	16b-\	.
.	16a-\JJ	.
.	16g/LL	.
.	16f/	.
.	16e-/	.
.	16d-/JJ	.
4r	16c/LL	.
.	16B-/	.
.	16A-/	.
.	16G/JJ	.
=70	=70	=70
8r	[4A-/)	p
8AA-/ 8C/L	.	.
8AA-/ 8C/	8A-/L]	.
8AA-/ 8C/	(8G-/	.
8AA-/ 8C/	8e-/	.
8AA-/ 8C/J	8G-/J)	.
=71	=71	=71
8r	[4G-/	.
8AAn/ 8C/L	.	.
8AA/ 8C/	8G-/L]	.
8AA/ 8C/	(8F/	.
8AA/ 8C/	8e-/	.
8AA/ 8C/J	8c/J	.
=72	=72	=72
8r	[4d-/)	.
8BB-\ 8F\L	.	.
8BB-\ 8F\	8d-/L]	.
8BB-\ 8F\	(8B-/	.
8BB-\ 8D-\	8f/	.
8BB-\ 8F\J	8A-/J)	.
=73	=73	=73
8r	[4A-/	.
8BBn\ 8F\L	.	.
8BB\ 8F\	8A-/L]	.
8BB\ 8F\	(8G/	.
8BB\ 8Dn\	8f/	.
8BB\ 8G\J	8dn/J	.
=74	=74	=74
8r	[4e-/)	<
8C\ 8G\L	.	.
8C\ 8G\	8e-/L]	.
8C\ 8G\	(8c/	.
8C\ 8E-\	8g/	.
8C\ 8G\J	8e-/J	.
=75	=75	=75
8r	[4a-/)	.
8FF/ 8F/L	.	.
8FF/ 8F/	8a-/L]	.
8FF/ 8F/	(8f/	.
8FF/ 8F/	8d/	.
8FF#/ 8F#/J	8c/J)	.
=76	=76	=76
4GGG/ 4GG/	16r	.
.	(16G'/LL	f
.	16G'/	.
.	16G'/JJ)	.
4BBBn/ 4BBn/	16r	.
.	(16Bn'/LL	.
.	16B'/	.
.	16B'/JJ)	.
4DD/ 4D/	16r	.
.	(16d'/LL	.
.	16d'/	.
.	16d'/JJ)	.
=77	=77	=77
4GG/ 4G/	8r	.
.	(16g/LL	.
.	16an/JJ	.
4r	16bn\LL	<
.	16g\	.
.	16b\	.
.	16cc\JJ	.
4r	16dd\LL	.
.	16b\	.
.	16dd\	.
.	16ee-\JJ	.
=78	=78	=78
4GGG/ 4GG/	16ff\LL	.
.	16dd\	.
.	16bbn\	.
.	16ccc\JJ	.
8r	16ddd\LL	.
.	16ccc\	.
8G''\L	16bb\	.
.	16aa-\JJ	.
8An''\	16gg\LL	.
.	16ff\	.
8Bn''\J	16ee-\	.
.	16dd\JJ	.
=79	=79	=79
4c'\	16ee-\LL	.
.	16ff\	.
.	16gg\	.
.	16ff\JJ	.
4d'\	16ee-\LL	.
.	16dd\	.
.	16cc\	.
.	16bn\JJ	.
4e-'\	16cc\LL)	.
.	(16bbn\	.
.	16ccc\	.
.	16gg\JJ	.
=80	=80	=80
!	!bb-q/	!.
4f\	8aa-\L	.
.	16gg\L	.
.	16ff\JJ	>
4g\	4ee-\	.
4G\	4dd\	.
=81	=81	=81
!	!ccq/LL	!.
!	!ddq/JJ	!.
&(4c\&)	8cc\)	.
.	(16g/LL	p
.	16a-/JJ	.
4r	8g''/L)	.
.	8g''/	.
4r	8g''/	.
.	8g''/J	.
=82	=82	=82
*	*^	*
8r	([2.a-/	8r	.
(16c\LL	.	16e-\LL	.
16d\JJ	.	16f\JJ	.
8c''\L)	.	8e-\L)	.
8c''\	.	8e-\	.
8c''\	.	8e-\	.
8c''\J	.	8e-\J	.
*	*v	*v	*
=83	=83	=83
2.B-\	8d/ 8a-/L]	.
.	(16f/ 16a-/L	.
.	16g/ 16b-/JJ	.
.	8f''/) 8a-''/L	.
.	8a-''/ 8cc''/	.
.	8g''/ 8b-''/	.
.	8f''/ 8a-''/J	.
=84	=84	=84
2.BBB-/ 2.BB-/	8r	.
.	(16e-/ 16g/LL	.
.	16f/ 16a-/JJ	.
.	8e-''/) 8g''/L	<
.	8g''/ 8b-''/	.
.	8f''/ 8a-''/	.
.	8e-''/ 8g''/J	.
=85	=85	=85
2.BBB-/ 2.BB-/	8d''/ 8f''/L	mf
.	8c''/ 8e-''/	.
.	8B-''/ 8d''/	>
.	8A-''/ 8c''/	.
.	8G''/ 8B-''/	.
.	8F''/ 8A-''/J	.
=86	=86	=86
2E-\ 2G\	8r	.
.	8b-''\L	p
.	(8b-\	.
.	8ee-\)	.
*clefG2	*	*
(4g/	(8ee-\	p
.	8dd\J)	.
=87	=87	=87
8a-/)	8r	.
8r	8cc\	.
8g/	8r	.
8r	8b-\	.
8f/	8r	.
8r	8a-/	.
=88	=88	=88
4e-/	16r	.
.	(16g/LL	.
.	16b-/	.
.	16g/JJ	.
4r	16ee-\LL	.
.	16b-\	.
.	16gg\	.
.	16ff\JJ	.
(4g/	16ee-\LL	.
.	16dd\	.
.	16cc\	.
.	16b-\JJ)	.
=89	=89	=89
8a-/)	16r	.
.	16cc\LL	<
8r	16bn\	.
.	&(16cc\JJ&)	.
8g/	16r	.
.	16b-\LL	.
8r	16an\	.
.	&(16b-\JJ&)	.
8f/	16r	.
.	16a-/LL	.
8r	16g/	.
.	&(16a-/JJ&)	.
=90	=90	=90
4e-/	16r	.
.	(16g/LL	f
.	16a-/	.
.	16b-/JJ	.
4r	16cc\LL	.
.	16dd\	.
.	16ee-\	.
.	16ff\JJ	.
4r	16gg\LL	.
.	16ee-\	.
.	16dd\	.
.	16cc\JJ	.
*clefF4	*	*
=91	=91	=91
8r	2b-\	f
16E-\LL	.	.
16F\JJ	.	.
&(8G''\L&)	.	.
8E-''\	.	.
8F''\	4a-/	.
8BB-\J	.	.
=92	=92	=92
!	!gq/LL	!.
!	!a-q/JJ	!.
4E-\	16g''/LL)	.
.	(16e-/	mf
.	16d/	.
.	16e-/JJ	.
4r	16f/LL	.
.	16e-/	.
.	16d/	.
.	16e-/JJ	.
4GG''/	16g/LL	.
.	16f/	.
.	16e-/	.
.	16d/JJ	.
=93	=93	=93
4AA-''/	16c''/LL)	.
.	(16a-/	.
.	16cc/	.
.	16b-/JJ	.
4r	16a-/LL	.
.	16g/	.
.	16f/	.
.	16e-/JJ	.
4BB-''/	16d/LL	.
.	16c/	.
.	16B-/	.
.	16A-/JJ	.
=94	=94	=94
4EE-''/	16G''/LL)	.
.	(16e-/	.
.	16d/	.
.	16e-/JJ	.
4r	16f/LL	.
.	16e-/	.
.	16d/	.
.	16e-/JJ	.
4GG''/	16g/LL	.
.	16f/	.
.	16e-/	.
.	16d/JJ	.
=95	=95	=95
4AA-''/	16c/LL)	.
.	(16a-/	.
.	16cc/	.
.	16b-/JJ	.
4r	16a-/LL	.
.	16g/	.
.	16f/	.
.	16e-/JJ	.
4BB-''/	16d/LL	.
.	16c/	.
.	16B-/	.
.	16A-/JJ	.
=96	=96	=96
16r	8G/)	.
(16E-\LL	.	.
16F\	8r	.
16G\JJ	.	.
16A-\LL	4r	.
16B-\	.	.
16c\	.	.
16d\JJ	.	.
16e-\LL	4r	.
16f\	.	.
16g\	.	.
16f\JJ	.	.
=97	=97	=97
4e-\)	8r	.
.	8g\L	p
4r	&(8gg\&)	.
.	8gg''\	.
4e-''\	8bn\	.
.	&(8cc\J&)	.
=98	=98	=98
4d''\	8r	.
.	(8f\L	.
4r	8ff\)	.
.	8ff''\	.
4d''\	(8an\	.
.	8b-\J)	.
=99	=99	=99
4c\	16r	.
.	16g\LL	.
.	16b-\	.
.	16ee-\JJ	.
8a-''\	16r	.
.	16a-\LL	.
8r	16cc\	.
.	16ee-\JJ	.
4c''\	16r	.
.	16cc\LL	.
.	16ee-\	.
.	16aa-\JJ	.
=100	=100	=100
4B-''\	16r	.
.	16f\LL	.
.	16a-\	.
.	16dd\JJ	.
8g''\	16r	.
.	16g\LL	.
8r	16b-\	.
.	16dd\JJ	.
4B-''\	16r	.
.	16b-\LL	.
.	16dd\	.
.	16gg\JJ	.
=101	=101	=101
4A-''\	16r	.
.	16en/LL	.
.	16g/	.
.	16cc/JJ	.
8f''\	16r	.
.	16f/LL	.
8r	16a-/	.
.	16cc/JJ	.
4A-''\	16r	.
.	16a-\LL	.
.	16cc\	.
.	16ff\JJ	.
=102	=102	=102
4G''\	16r	.
.	16d/LL	.
.	16f/	.
.	16b-/JJ	.
8e-''\	16r	.
.	16e-/LL	.
8r	16g/	.
.	16b-/JJ	.
4E-''\	16r	.
.	16g\LL	.
.	16b-\	.
.	16ee-\JJ	.
=103	=103	=103
4B-''\	16r	.
.	16d/LL	.
.	16a-/	.
.	16b-/JJ	.
4f''\	16r	.
.	16d/LL	.
.	16a-/	.
.	16b-/JJ	.
4e-''\	16r	.
.	16g\LL	.
.	16b-\	.
.	16ee-\JJ	.
=104	=104	=104
4B-''\	16r	.
.	16d/LL	.
.	16a-/	.
.	16b-/JJ	.
4f''\	16r	.
.	16d/LL	.
.	16a-/	.
.	16b-/JJ	.
4e-''\	16r	.
.	16g\LL	.
.	16b-\	.
.	16ee-\JJ	.
=105	=105	=105
4B-''\	16r	.
.	16d/LL	.
.	16a-/	.
.	16b-/JJ	.
4f''\	16r	.
.	16d/LL	.
.	16a-/	.
.	16b-/JJ	.
4e-''\	16r	.
.	16g\LL	.
.	16b-\	.
.	16ee-\JJ	.
=106	=106	=106
*^	*	*
(4e-/	2B-\	(4g/	.
4d/)	.	4f/)	.
4r	4r	4r	.
*v	*v	*	*
=107	=107	=107
4EE-/ 4E-/	16r	.
.	(16e-'/LL	f
.	16e-'/	.
.	16e-'/JJ)	.
4GG/ 4G/	16r	.
.	(16g'/LL	.
.	16g'/	.
.	16g'/JJ)	.
4BB-\ 4B-\	16r	.
.	(16b-'\LL	.
.	16b-'\	.
.	16b-'\JJ)	.
=108	=108	=108
4E-\ 4e-\	16r	.
.	(16ee-\LL	.
.	16dd\	.
.	16ee-\JJ	.
4r	16gg\LL	.
.	16ee-\	.
.	16dd\	.
.	16cc\JJ	.
4r	16b-/LL	.
.	16a-/	.
.	16g/	.
.	16f/JJ	.
=109	=109	=109
4EE-/ 4E-/	16e-''/LL	.
.	(16e-'/)	.
.	16e-'/	.
.	16e-'/JJ)	.
4GG/ 4G/	16r	.
.	(16g'/LL	.
.	16g'/	.
.	16g'/JJ)	.
4BB-\ 4B-\	16r	.
.	(16b-'\LL	.
.	16b-'\	.
.	16b-'\JJ)	.
=110	=110	=110
4E-\ 4e-\	16r	.
.	(16ee-\LL	.
.	16dd\	.
.	16ee-\JJ	.
4r	16gg\LL	.
.	16ff\	.
.	16ee-\	.
.	16dd\JJ	.
4r	16cc\LL	.
.	16b-\	.
.	16a-\	.
.	16g\JJ	.
=111	=111	=111
2AA-/ 2C/ 2F/	16f''/LL	.
.	(16a-/)	.
.	16g/	.
.	16a-/JJ	.
.	16cc/LL	>
.	16b-/	.
.	16a-/	.
.	16g/JJ	.
4r	16f/LL	.
.	16e-/	.
.	16d/	.
.	16c/JJ	.
=112	=112	=112
2BB-\ 2F\ 2A-\	16B-''/LL)	.
.	(16d'/	p
.	16d'/	.
.	16d'/JJ)	.
.	(16f/LL	.
.	16d/)	.
.	(16f/	.
.	16d/JJ)	.
4BB-\ 4F\ 4A-\	16r	.
.	(16d'/LL	.
.	16d'/	.
.	16d'/JJ)	.
=113	=113	=113
2BB-\ 2E-\ 2G\	16r	.
.	(16e-'/LL	.
.	16e-'/	.
.	16e-'/JJ)	.
.	(16g/LL	.
.	16e-/)	.
.	(16g/	.
.	16e-/JJ)	.
4BB-\ 4E-\ 4G\	16r	.
.	(16e-'/LL	.
.	16e-'/	.
.	16e-'/JJ)	.
=114	=114	=114
2BB-\ 2D\ 2F\	16r	.
.	(16f'/LL	.
.	16f'/	.
.	16f'/JJ)	.
.	16a-/LL	.
.	16f/	.
.	16a-/	.
.	16f/JJ	.
4BB-\ 4D\ 4F\	16r	.
.	(16f'/LL	.
.	16f'/	.
.	16f'/JJ)	.
=115	=115	=115
2.r	16e-\	.
.	16g/	.
.	16d\	.
.	16f/	<
.	16c\	.
.	16e-/	.
.	16B-\	.
.	16d/	.
.	16A-\	.
.	16c/	.
.	16G\	.
.	16B-/	.
=116	=116	=116
2.r	16e-\	.
.	16g/	.
.	16d\	.
.	16f/	.
.	16c\	.
.	16e-/	.
.	16B-\	.
.	16d/	.
.	16A-\	.
.	16c/	.
.	16G\	.
.	16B-/	.
=117	=117	=117
4A-\	16r	.
.	(16c/LL	f
.	16d/	.
.	16en/JJ	.
4r	16f/LL	.
.	16g/	.
.	16a-/	.
.	16b-/JJ	.
16r	8cc\)	.
(16A-\LL	.	.
16AA-\	8r	.
16A-\JJ	.	.
=118	=118	=118
4GG/)	16r	.
.	16B-/LL	.
.	16c/	.
.	16d/JJ	.
4r	16e-/LL	.
.	16f/	.
.	16g/	.
.	16a-/JJ	.
16r	&(8b-/&)	.
(16G\LL	.	.
16GG\	8r	.
16G\JJ	.	.
=119	=119	=119
4AA-/)	16r	.
.	16c/LL	.
.	16d/	.
.	16en/JJ	.
4r	16f/LL	.
.	16g/	.
.	16a-/	.
.	16b-/JJ	.
16r	&(8cc\&)	.
(16A-\LL	.	.
16AA-\	8r	.
16A-\JJ	.	.
=120	=120	=120
4GG/)	16r	.
.	16B-/LL	.
.	16c/	.
.	16d/JJ	.
4r	16e-/LL	.
.	16f/	.
.	16g/	.
.	16a-/JJ	.
4r	16b-\LL	.
.	16cc\	.
.	16dd\	.
.	32ee-\L	.
.	32ff\JJJ	.
=121	=121	=121
2.r	&(8gg''\&)	.
.	8r	.
.	4r	.
.	4r	.
*clefG2	*	*
=122	=122	=122
4an\ 4ee-\	(16ff\LL	p
.	16aan\	.
.	16ccc\	.
.	16bb-\JJ	.
8r	16aa\LL	.
.	16gg\	.
8a''\ 8ee-''\L	16ff\	.
.	16gg\JJ	.
8a''\ 8ee-''\	16ff\LL	.
.	16gg\	.
8a''\ 8ee-''\J	16ff\	.
.	16gg\JJ	.
=123	=123	=123
4b-\ 4dd\	16ff\LL	.
.	16aan\	.
.	16bb-\	.
.	16aa\JJ	.
4r	16gg\LL	.
.	16ff\	.
.	16ee-\	.
.	16dd\JJ	.
4r	16cc\LL	.
.	16b-\	.
.	16an\	.
.	16g\JJ	.
*clefF4	*	*
=124	=124	=124
4An\ 4e-\	(16f/LL)	mf
.	16an/	.
.	16cc/	.
.	16b-/JJ	.
8r	16a/LL	.
.	16g/	.
8A''\ 8e-''\L	16f/	.
.	16g/JJ	.
8A''\ 8e-''\	16f/LL	.
.	16g/	.
8A''\ 8e-''\J	16f/	.
.	16g/JJ	.
=125	=125	=125
4B-\ 4d\	16f/LL	.
.	16b-/	.
.	16an/	.
.	16g/JJ	.
4r	16f/LL	.
.	16e-/	.
.	16d/	.
.	16c/JJ	.
4r	16B-/LL	.
.	16c/	.
.	16d/	.
.	16e-/JJ	.
=126	=126	=126
4BBB-/ 4BB-/	16f/LL	f
.	16d/	.
.	16f/	.
.	16g/JJ	.
8r	16a-/LL	.
.	16g/	.
8BB-''/L	16f/	.
.	16e-/JJ	.
8C''/	16d/LL	.
.	16c/	.
8D''/J	16B-/	.
.	16A-/JJ	.
=127	=127	=127
4E-'\	16G/LL	.
.	16B-/	.
.	16A-/	.
.	16G/JJ	.
4F'\	16A-/LL	.
.	16B-/	.
.	16c/	.
.	16d/JJ	.
4G'\	16e-/LL	.
.	16f/	.
.	16g/	.
.	16e-/JJ	.
=128	=128	=128
*^	*	*
(4A-/	4AA-\	16d/LL	.
.	.	16c/	.
.	.	16a-/	.
.	.	16f/JJ	.
4G/	2BB-\	4e-/	.
4F/)	.	4d/	.
*v	*v	*	*
=129	=129	=129
!	!cq/LL)	!.
!	!dq/JJ	!.
4E-'\	(16G/LL	.
.	16B-/	.
.	16A-/	.
.	16G/JJ	.
4F'\	16A-/LL	.
.	16B-/	.
.	16c/	.
.	16d/JJ	.
4G'\	16e-/LL	.
.	16f/	.
.	16g/	.
.	16e-/JJ	.
=130	=130	=130
8A-''\L	16d^/LL	.
.	16c/	.
8F''\J	16a-/	.
.	16f/JJ	.
8B-''\L	16e-^/LL	.
.	16d/	.
8G''\J	16b-/	.
.	16g/JJ	.
8c''\L	16f^/LL	.
.	16e-/	.
8A-''\J	16cc/	.
.	16a-/JJ	.
=131	=131	=131
4d\	16g\LL	.
.	16f\	.
.	16gg\	.
.	16ff\JJ	.
8r	16ee-\LL	.
.	16dd\	.
8B-''\L	16ff\	.
.	16ee-\JJ	.
8c''\	16dd\LL	.
.	16cc\	.
8d''\J	16b-\	.
.	16a-\JJ	.
=132	=132	=132
4e-'\	16g/LL	.
.	16b-/	.
.	16a-/	.
.	16g/JJ	.
4f'\	16a-\LL	.
.	16b-\	.
.	16cc\	.
.	16dd\JJ	.
4g'\	16ee-\LL	.
.	16ff\	.
.	16gg\	.
.	16ee-\JJ	.
=133	=133	=133
4A-\ 4e-\	16dd\LL	.
.	16cc\	.
.	16ccc\	.
.	16aa-\JJ	.
&(4B-\&) 4e-\	4gg\	.
4B-\ 4d\	4ff\	.
=134	=134	=134
!	!ee-q/LL	!.
!	!ffq/JJ	!.
&(4e-\&)	8ee-\)	.
.	(16g/ 16b-/LL	>
.	16a-/ 16cc/JJ	.
4r	8g''/) 8b-''/L	.
.	8f''/ 8a-''/	.
4r	8e-''/ 8g''/	.
.	8d''/ 8f''/J	.
=135	=135	=135
*^	*	*
8r	2E-\	8e-/ 8g/	.
(16B-/LL	.	(16g/LL	p
16c/JJ	.	16a-/JJ	.
8B-/L)	.	8g''/L)	.
8A-'/	.	8f''/	.
8G'/	4BB-\	8e-''/	.
8F/J	.	8d''/J	.
*v	*v	*	*
=136	=136	=136
2.EE-/ 2.BB-/ 2.E-/	4F/ 4A-/ (4d/	.
.	&(2G/&) 2e-/)	.
==:|!	==:|!	==:|!
*-	*-	*-
!!!ENC: Craig Stuart Sapp
!!!END: 2009/02/19/
